X:1
T:Title
L:1/8
Q:1/4=100
M:2/4
K:Bb
V:1 treble nm="Grand Piano"
V:1
 z B BA | B2 F2 | F2 ED | E4- | EF FE | G2 E2 | D4 | z B BA | B2 F2 | F2 ED | E4- | EF FE | G2 E2 | %13
 D4 | z d d>d | d4- | dB B>G | G4- | Gc c>c | c4- | cA A>G | F4- | FB B>B | B4- | BA G>F | E4- | %26
 EF FE | G2 E2 | D4 |] %29

